X:3697
T:Little Annie Rooney. GHW.053
O:england
M:3/4
L:1/4
Q:60
S:George H.Watson,MS,Swanton Abbott,Norfolk,1850-1880
R:Waltz
A:Norfolk
N:Chorus written at start of B music
K:C
e|e2a|g2e|ed2|c2z|f2a|g2e|f2e|d2z|
ea2|g2e|e2d|c2e|dc'2|b2a|a3|g2z|
a2c'|g2e|(age)|g2e|f2a|g2e|(ag)e|d2d|
e2a|g2e|e2d|c2e|dc'2|(b2a)|a3|g2z||
"CHORUS"g3|c3|g3|c3|c'3|a3|(g3|g2)z|
a3|f3|g(e2|e2)z|e3|c3|(d3|d2)z|g3|e3|d(c2|c2)z|
g(c'2|c'3)|b(a2|a2)z|gg2|a2b|c'(g2|g2)a|f3|d3|c3||


